public/uploads/logo-hellow.svg

<svg width="164" height="34" viewBox="0 0 164 34" fill="none" xmlns="http://www.w3.org/2000/svg">
<path d="M19.5987 21.5444H12.4012V33H-6.10352e-05V0H12.4012V11.6914H19.5987V0H31.9999V33H19.5987V21.5444Z" fill="#010101"/>
<path d="M44.5759 23.1783C44.5759 24.9981 45.2511 26.9136 48.0971 26.9136C49.7845 26.9136 51.1836 26.0994 51.4249 24.8077H62.5182C61.6494 30.2181 56.6335 34 48.1935 34C38.9333 34 32.9999 29.2117 32.9999 21.0241C32.9999 14.0816 37.8718 8 47.9522 8C58.129 8 62.9999 13.9378 62.9999 19.4921C62.9999 20.7846 62.9522 21.8376 62.7109 23.1775L44.5759 23.1783ZM44.5759 18.2944H51.4249C51.4249 16.141 50.1229 14.8003 48.0008 14.8003C45.8778 14.8003 44.5759 16.141 44.5759 18.2944Z" fill="#010101"/>
<path d="M76.9999 0H64.9999V33H76.9999V0Z" fill="#010101"/>
<path d="M90.9999 0H79.9999V33H90.9999V0Z" fill="#010101"/>
<path d="M92.9999 21.0237C92.9999 13.794 98.2084 8 108 8C117.791 8 123 13.794 123 21.0237C123 28.1594 117.791 34 108 34C98.2084 34 92.9999 28.1585 92.9999 21.0237ZM111.424 21.0237C111.424 18.9651 110.074 17.5286 108 17.5286C105.925 17.5286 104.575 18.9651 104.575 21.0237C104.575 23.0357 105.925 24.5196 108 24.5196C110.074 24.5196 111.424 23.0357 111.424 21.0237Z" fill="#010101"/>
<path d="M142.477 22.4266L140.064 33H129.372L121 9H132.306L135.475 21.5847L137.555 9H147.443L149.524 21.5847L152.693 9H164L155.627 33H144.936L142.477 22.4266Z" fill="#010101"/>
</svg>

<?xml version="1.0" encoding="utf-8"?>
<!-- Generator: Adobe Illustrator 16.0.0, SVG Export Plug-In . SVG Version: 6.00 Build 0)  -->
<!DOCTYPE svg PUBLIC "-//W3C//DTD SVG 1.1//EN" "http://www.w3.org/Graphics/SVG/1.1/DTD/svg11.dtd">
<svg version="1.1" id="Layer_1" xmlns="http://www.w3.org/2000/svg" xmlns:xlink="http://www.w3.org/1999/xlink" x="0px" y="0px"
	 width="164px" height="34px" viewBox="0 0 164 34" enable-background="new 0 0 164 34" xml:space="preserve">
<path fill="#4D4D4D" d="M19.599,21.545h-7.197V33H0V0h12.401v11.691h7.197V0H32v33H19.599V21.545z"/>
<path fill="#4D4D4D" d="M44.576,23.178c0,1.82,0.675,3.736,3.521,3.736c1.688,0,3.086-0.814,3.328-2.106h11.093
	C61.649,30.219,56.633,34,48.193,34C38.933,34,33,29.212,33,21.023C33,14.082,37.872,8,47.952,8C58.129,8,63,13.938,63,19.492
	c0,1.293-0.048,2.346-0.289,3.686H44.576z M44.576,18.295h6.849c0-2.154-1.302-3.495-3.424-3.495
	C45.878,14.8,44.576,16.141,44.576,18.295z"/>
<path fill="#4D4D4D" d="M77,0H65v33h12V0z"/>
<path fill="#4D4D4D" d="M91,0H80v33h11V0z"/>
<path fill="#4D4D4D" d="M93,21.023C93,13.794,98.209,8,108,8s15,5.794,15,13.023C123,28.159,117.791,34,108,34S93,28.158,93,21.023z
	 M111.424,21.023c0-2.059-1.35-3.494-3.424-3.494c-2.075,0-3.425,1.436-3.425,3.494c0,2.012,1.35,3.496,3.425,3.496
	C110.074,24.52,111.424,23.035,111.424,21.023z"/>
<path fill="#4D4D4D" d="M142.477,22.427L140.064,33h-10.692L121,9h11.307l3.168,12.585L137.555,9h9.889l2.08,12.585L152.693,9H164
	l-8.373,24h-10.691L142.477,22.427z"/>
</svg>
